X:976
T:Threshing the Barley
B:O'Neill's 976
Z:Transcribed by Dan G. Petersen, dangp@post6.tele.dk
M:6/8
L:1/8
K:G
d/c/|BAB GBd|cBc ABc|Bcd cBA|Gge d2c|
BAB GBd|cBc ABc|Bcd cAF|GFG G2:|
c|Bcd def|{a}gfe dBG|Bcd def|age d2d|
gag gdB|cdc cAF|GBd cAF|GFG G2:|


